packages/astro-components-stencil/src/icons/translate.svg

<svg xmlns="http://www.w3.org/2000/svg" viewBox="0 0 24 24"><g xmlns="http://www.w3.org/2000/svg" id="translate" fill-rule="nonzero">
            <path d="M12.65 15.67c.14-.36.05-.77-.23-1.05l-2.09-2.06.03-.03A17.52 17.52 0 0014.07 6h1.94c.54 0 .99-.45.99-.99v-.02c0-.54-.45-.99-.99-.99H10V3c0-.55-.45-1-1-1s-1 .45-1 1v1H1.99c-.54 0-.99.45-.99.99 0 .55.45.99.99.99h10.18A15.66 15.66 0 019 11.35c-.81-.89-1.49-1.86-2.06-2.88A.885.885 0 006.16 8c-.69 0-1.13.75-.79 1.35.63 1.13 1.4 2.21 2.3 3.21L3.3 16.87a.99.99 0 000 1.42c.39.39 1.02.39 1.42 0L9 14l2.02 2.02c.51.51 1.38.32 1.63-.35zM17.5 10c-.6 0-1.14.37-1.35.94l-3.67 9.8c-.24.61.22 1.26.87 1.26.39 0 .74-.24.88-.61l.89-2.39h4.75l.9 2.39c.14.36.49.61.88.61.65 0 1.11-.65.88-1.26l-3.67-9.8c-.22-.57-.76-.94-1.36-.94zm-1.62 7l1.62-4.33L19.12 17h-3.24z"/>
        </g></svg>

<svg width="24" height="24" viewBox="0 0 24 24" fill="none" xmlns="http://www.w3.org/2000/svg">
<path fill-rule="evenodd" clip-rule="evenodd" d="M12.65 15.67C12.79 15.31 12.7 14.9 12.42 14.62L10.33 12.56L10.36 12.53C12.1 10.59 13.34 8.36 14.07 6H16.01C16.55 6 17 5.55 17 5.01V4.99C17 4.45 16.55 4 16.01 4H10V3C10 2.45 9.55 2 9 2C8.45 2 8 2.45 8 3V4H1.99C1.45 4 1 4.45 1 4.99C1 5.54 1.45 5.98 1.99 5.98H12.17C11.5 7.92 10.44 9.75 9 11.35C8.19 10.46 7.51 9.49 6.94 8.47C6.78 8.18 6.49 8 6.16 8C5.47 8 5.03 8.75 5.37 9.35C6 10.48 6.77 11.56 7.67 12.56L3.3 16.87C2.9 17.26 2.9 17.9 3.3 18.29C3.69 18.68 4.32 18.68 4.72 18.29L9 14L11.02 16.02C11.53 16.53 12.4 16.34 12.65 15.67ZM17.5 10C16.9 10 16.36 10.37 16.15 10.94L12.48 20.74C12.24 21.35 12.7 22 13.35 22C13.74 22 14.09 21.76 14.23 21.39L15.12 19H19.87L20.77 21.39C20.91 21.75 21.26 22 21.65 22C22.3 22 22.76 21.35 22.53 20.74L18.86 10.94C18.64 10.37 18.1 10 17.5 10ZM17.5 12.67L15.88 17H19.12L17.5 12.67Z" fill="black"/>
</svg>
